X:612
T:Flowers in the Valley., The
R:air
T:na bla.ta 'nnsa n-gleann.
Z:Tempo: Moderate.
M:6/8
Q:70
K:D
d/e/|fgf eaf|dcd ec d/B/|ABG FAd|def e2 d/e/|
fgf eaf|dcd ec d/B/|ABG FAd|eBc d2||
f|fde fb a/g/|fde fd f/e/|ecd eaf|ecB A2A|
dfe f/d/ z e|fga g/e/ z f|gab b/a/g/f/e/d/|eBc d2 c/B/|
ABG F/A/ z d/e/|fga g/e/ z f|gab b/a/g/f/e/d/|eBTHc
Bcd2||
